X:1
T: Mrs. Captain Charles Gordon of Huntly
C: William Marshall
R:Strathspey
Q: 128
K:A
M:4/4
L:1/16
|:ef1/2g1/2|a4 a3e fbag a3e|fb3 b3a ge3 e2fg|a4 a3e fedc dcBA|FBGB Afed cA3 A2ef1/2g1/2|
a4 a3e fbag a3e|fb3 b3a ge3 e2fg|a4 a3e fedc dcBA|FBGB Afed cA3 A2fg|
a3A c3G e3A c3A|Bdce dcBA BF3 F2fg|a3A c3G e3A c3A|fgaf gbag aA3 A2fg|
a3e c3A e3c A3C|D3F EC3 B,B3 B2bg|f3b agfe fefg a3A|FBGB Afed cA3 A2:|
